X:6139
T:So Now Come Away
O:england
B:Joyce, P. W.; "Old Irish Folk Music and Songs"
R:song air
H:Taken down from a ballad singer while she was in the act of singing at
H:the fair of Trim fifty years ago.
L:1/8
M:C
K:G
dc|AAAA d2 cA3/4F/4|G2 A3/2A/ A2 cd|e2 ee edcd|
edd3/2d/ d2 cd|eaag =f2 ed|decA A2 cd|
e2 ee edcd|efge d2"Chorus" cA3/4F/4|G2 A3/2A/ A2:|


